X:15011
T:Schwedisch - Walzer/Waltz/Valse
C:traditionell
Z:abc transcription Simon Wascher
N:please mail errors to simon.wascher@chello.at
M:3/4
L:1/4
K:D
D/E/|F>EF|G>FG|Afd|A3|
A^c>B|G3|GB>A|F2D/E/|
F>EF|G>FG|Afd|A3|
Ac>B|ABc|d>dd|d2:|
|:f|ee/d/c|BB/A/G|FAd|A2F|
GA^c|B>AG|FAd|A2f|
ee/d/c|BB/A/G|FAd|A2F|
GA^c|B>AB/c/|dc/d/f/e/|d2:|
|:A|FGA|FGA|cc>B|G3|
cc>B|G3|BB>A|F2A|
FGA|FGA|cc>B|G3|
cc>c|cBc|d>dd|d2:|


